X: 28060
T: Mr Benn's
R: hornpipe
M: 4/4
K: Dmajor
(3B,^A,|:A,D FA ~^G2 (3GAB|AF DA, ~^G,2 (3G,A,B,|A,F =FG (3^FED (3FAB|~=c2 ~c2 (3cDE (3FGA|
[1 B^A BD ~E2 (3EFG|~A2 ~F2 ~D2 DF|(3EFE (3DCD ~E2 EB|(3ABA (3GAG (3FGF (3ECB,:|
[2 B^A BA (3BAB (3G=AB|A^G (3AG=G ~F2 (3FGA|~B2 (3GAB ~A2 ~C2|(3DFA (3^GAd (3DFA (3ECB,||

